src/assets/images/homepage/home/partner_logo_9.svg

<svg fill="none" height="89" viewBox="0 0 89 89" width="89" xmlns="http://www.w3.org/2000/svg" xmlns:xlink="http://www.w3.org/1999/xlink"><radialGradient id="a" cx="0" cy="0" gradientTransform="matrix(0 -27.1926 34.915 0 44.2079 73.1528)" gradientUnits="userSpaceOnUse" r="1"><stop offset=".2" stop-color="#56f2ff"/><stop offset="1" stop-color="#4a8cea"/></radialGradient><radialGradient id="b" cx="0" cy="0" gradientTransform="matrix(-.02258538 8.23182902 -15.31204237 -.04201111 44.3441 38.0189)" gradientUnits="userSpaceOnUse" r="1"><stop offset="0" stop-color="#eeff83"/><stop offset=".69" stop-color="#5699ec"/></radialGradient><radialGradient id="c" cx="0" cy="0" gradientTransform="matrix(-.0263159 9.5915139 -17.76753313 -.04874815 44.3286 41.4409)" gradientUnits="userSpaceOnUse" r="1"><stop offset="0" stop-color="#56f2ff"/><stop offset="1" stop-color="#5699ec"/></radialGradient><linearGradient id="d" gradientUnits="userSpaceOnUse" x1="36.9486" x2="36.9486" y1="16.0107" y2="46.3011"><stop offset=".38" stop-color="#ffe336"/><stop offset="1" stop-color="#13c0b6" stop-opacity=".7"/></linearGradient><linearGradient id="e" gradientUnits="userSpaceOnUse" x1="51.0901" x2="51.0901" y1="16" y2="46.3016"><stop offset=".41" stop-color="#ff7f72"/><stop offset="1" stop-color="#2978ef" stop-opacity=".7"/></linearGradient><clipPath id="f"><path d="m24 16h40v57h-40z"/></clipPath><circle cx="44.2225" cy="44.2225" fill="#fff" r="44.2225"/><g clip-path="url(#f)"><path d="m43.9972 51.1557-16.4043-9.5375-.4482.7001c-5.0528 7.8896-3.9241 18.2204 2.713 24.8401 7.8098 7.7891 20.4729 7.7891 28.2845 0 6.6371-6.6197 7.7658-16.9523 2.713-24.8401l-.4482-.7001z" fill="url(#a)"/><path d="m44.0193 29.8506-14.1414 8.2304 14.1414 8.2192 14.1303-8.2192z" fill="url(#b)" opacity=".6"/><path d="m44.0377 31.9971-16.4317 9.6232 16.3951 9.5431 16.4098-9.545z" fill="url(#c)"/><path d="m44.0193 16.0107-14.1414 22.0694 14.1414 8.2192z" fill="url(#d)"/><path d="m44.0176 46.3016 14.1431-8.2211-14.1413-22.0805v30.3016z" fill="url(#e)"/></g></svg>

<svg width="89" height="89" viewBox="0 0 89 89" fill="none" xmlns="http://www.w3.org/2000/svg">
<circle cx="44.2225" cy="44.2225" r="44.2225" fill="white"/>
<g clip-path="url(#clip0_5672_17335)">
<path d="M43.9972 51.1557L27.5929 41.6182L27.1447 42.3183C22.0919 50.2079 23.2206 60.5387 29.8577 67.1584C37.6675 74.9475 50.3306 74.9475 58.1422 67.1584C64.7793 60.5387 65.908 50.2061 60.8552 42.3183L60.407 41.6182L43.9972 51.1557Z" fill="url(#paint0_radial_5672_17335)"/>
<path opacity="0.6" d="M44.0193 29.8506L29.8779 38.081L44.0193 46.3002L58.1496 38.081L44.0193 29.8506Z" fill="url(#paint1_radial_5672_17335)"/>
<path d="M44.0377 31.9971L27.606 41.6203L44.0011 51.1634L60.4109 41.6184L44.0377 31.9971Z" fill="url(#paint2_radial_5672_17335)"/>
<path d="M44.0193 16.0107L29.8779 38.0801L44.0193 46.2993V16.0107Z" fill="url(#paint3_linear_5672_17335)"/>
<path d="M44.0176 46.3016L58.1607 38.0805L44.0194 16V46.3016H44.0176Z" fill="url(#paint4_linear_5672_17335)"/>
</g>
<defs>
<radialGradient id="paint0_radial_5672_17335" cx="0" cy="0" r="1" gradientUnits="userSpaceOnUse" gradientTransform="translate(44.2079 73.1528) rotate(-90) scale(27.1926 34.915)">
<stop offset="0.2" stop-color="#56F2FF"/>
<stop offset="1" stop-color="#4A8CEA"/>
</radialGradient>
<radialGradient id="paint1_radial_5672_17335" cx="0" cy="0" r="1" gradientUnits="userSpaceOnUse" gradientTransform="translate(44.3441 38.0189) rotate(90.1572) scale(8.23186 15.3121)">
<stop stop-color="#EEFF83"/>
<stop offset="0.69" stop-color="#5699EC"/>
</radialGradient>
<radialGradient id="paint2_radial_5672_17335" cx="0" cy="0" r="1" gradientUnits="userSpaceOnUse" gradientTransform="translate(44.3286 41.4409) rotate(90.1572) scale(9.59155 17.7676)">
<stop stop-color="#56F2FF"/>
<stop offset="1" stop-color="#5699EC"/>
</radialGradient>
<linearGradient id="paint3_linear_5672_17335" x1="36.9486" y1="16.0107" x2="36.9486" y2="46.3011" gradientUnits="userSpaceOnUse">
<stop offset="0.38" stop-color="#FFE336"/>
<stop offset="1" stop-color="#13C0B6" stop-opacity="0.7"/>
</linearGradient>
<linearGradient id="paint4_linear_5672_17335" x1="51.0901" y1="16" x2="51.0901" y2="46.3016" gradientUnits="userSpaceOnUse">
<stop offset="0.41" stop-color="#FF7F72"/>
<stop offset="1" stop-color="#2978EF" stop-opacity="0.7"/>
</linearGradient>
<clipPath id="clip0_5672_17335">
<rect width="40" height="57" fill="white" transform="translate(24 16)"/>
</clipPath>
</defs>
</svg>
